icons/outline/container-off.svg

<!--
category: Design
tags: [element, html, block, store, inside]
version: "1.65"
unicode: "f107"
-->
<svg
  xmlns="http://www.w3.org/2000/svg"
  width="24"
  height="24"
  viewBox="0 0 24 24"
  fill="none"
  stroke="currentColor"
  stroke-width="2"
  stroke-linecap="round"
  stroke-linejoin="round"
>
  <path d="M20 4v.01m0 15.99v.01m0 -4.01v.01m0 -4.01v.01m0 -4.01v.01m-11.703 -3.721a1 1 0 0 1 .703 -.289h6a1 1 0 0 1 1 1v7m0 4v3a1 1 0 0 1 -1 1h-6a1 1 0 0 1 -1 -1v-11m-4 -4v.01m0 15.99v.01m0 -4.01v.01m0 -4.01v.01m0 -4.01v.01m-1 -5.01l18 18" />
</svg>

<!--
category: Design
tags: [element, html, block, store, inside]
version: "1.65"
unicode: "f107"
-->
<svg
  xmlns="http://www.w3.org/2000/svg"
  width="24"
  height="24"
  viewBox="0 0 24 24"
  fill="none"
  stroke="currentColor"
  stroke-width="2"
  stroke-linecap="round"
  stroke-linejoin="round"
>
    <path d="M20 4v.01M20 20v.01M20 16v.01M20 12v.01M20 8v.01M8.297 4.289a1 1 0 0 1 .703 -.289h6a1 1 0 0 1 1 1v7m0 4v3a1 1 0 0 1 -1 1h-6a1 1 0 0 1 -1 -1v-11M4 4v.01M4 20v.01M4 16v.01M4 12v.01M4 8v.01M3 3l18 18" />
</svg>
